X: 317
T: Beyâtî-Arabân Seyir
C: Şefik Gürmeriç
O: Turkey
F: http://compmusic.upf.edu/node/140
N: beyati-araban--seyir--duyek--1--sefik_gurmeric
N: makam= beyati-araban
N: form= seyir
N: usul= duyek = 8/4
M: 8/4
L: 1/16
K: C _1/4B _7/8e ^f 
Q: 1/4=120
%%MIDI tuningsystem comma53
z2 g4 a2 a8  | a2 _2/4b2 a2 g2 c'4 _b2 a2  | \
w:   |   | 
a2 g2 g2 ^3/4f2 f2 _3/4e2 e2 d2  | \
w:   | 
d12 z4  | 
w:   | 
z2 ^3/4f4 g2 f2 _3/4e2 d4  | z2 g4 _b2 a2 g2 g2 ^3/4f2  | \
w:   |   | 
^3/4f2 _3/4e2 e2 d2 ^c2 d2 ef ed  | 
w:   | 
d12 z4  | z2 d4 c2 _2/4B2 c2 d4  | z2 d4 _3/4e2 ^3/4f4 g2 a2  | \
w:   |   |   | 
g2 ^3/4f2 _3/4e2 d2 d2 c2 c2 _2/4B2  | 
w:   | 
c6 d2 =e=f ge f4  | z2 =f2 =e2 f2 a2 g2 f2 e2  | \
w:   |   | 
=e2 d4 c2 _2/4B3A G4  | 
w:   | 
z2 c2 _2/4B2 c2 B2 A2 Ac BA  | A16  | |


